X: 020136
T: Banks (The)
S: McGann / Conway
R: hornpipe
M: 4/4
L: 1/8
K: Eb
(3B,CD | E2 G2 G2 (3BGE | D2 F2 F2 (3AFD | A,2 c2 c2 de |\
=ABcB _AGFE |
G,2 B2 B2 cd | A,2 c2 c2 de | DEFG AFDF | E2 G2 E2 :|
gf | g2 e2 e2 (3gfg | f2 d2 d2 (3fgf | e2 c2 c2 fe |\
dcB=A B2 B,2 |
DBfB DBfB | EBeB EBeB | =ABcd ecAc | B=ABc B_AGF |
EGBG eBFE | DFBF dFED | CEGE cBAG | FGFE DCB,A, | 
G,EBE G,EBE | A,EcE A,EcE | DEFG AFDF | E2 G2 E2 :|
